public/images/youtube_logo.svg

<svg fill="none" height="44" viewBox="0 0 44 44" width="44" xmlns="http://www.w3.org/2000/svg"><path d="m41.1643 12.3723c-.4599-1.7211-1.8152-3.07636-3.5363-3.53636-3.1197-.83594-15.628-.83594-15.628-.83594s-12.50836 0-15.62805.83594c-1.72078.46-3.07633 1.81526-3.53625 3.53636-.8357 3.1193-.8357 9.6279-.8357 9.6279s0 6.5085.8357 9.6275c.45992 1.7211 1.81547 3.0768 3.53625 3.5367 3.11969.8356 15.62805.8356 15.62805.8356s12.5083 0 15.628-.8356c1.7211-.4599 3.0764-1.8156 3.5363-3.5367.8356-3.119.8356-9.6275.8356-9.6275s0-6.5086-.8356-9.6279zm-23.1645 15.628v-12.0002l10.3921 6.0001z" fill="#fff" opacity=".48"/></svg>

<svg width="44" height="44" viewBox="0 0 44 44" fill="none" xmlns="http://www.w3.org/2000/svg">
<path opacity="0.48" d="M41.1643 12.3723C40.7044 10.6512 39.3491 9.29594 37.628 8.83594C34.5083 8 22 8 22 8C22 8 9.49164 8 6.37195 8.83594C4.65117 9.29594 3.29562 10.6512 2.8357 12.3723C2 15.4916 2 22.0002 2 22.0002C2 22.0002 2 28.5087 2.8357 31.6277C3.29562 33.3488 4.65117 34.7045 6.37195 35.1644C9.49164 36 22 36 22 36C22 36 34.5083 36 37.628 35.1644C39.3491 34.7045 40.7044 33.3488 41.1643 31.6277C41.9999 28.5087 41.9999 22.0002 41.9999 22.0002C41.9999 22.0002 41.9999 15.4916 41.1643 12.3723ZM17.9998 28.0003V16.0001L28.3919 22.0002L17.9998 28.0003Z" fill="white"/>
</svg>
